X:1
T:Title
%%score ( 1 2 ) { 3 | ( 4 5 ) }
L:1/8
M:4/4
K:A
V:1 treble nm="Grand Piano, Piano"
V:2 treble 
V:3 bass nm="Grand Piano, Piano"
V:4 bass 
V:5 bass 
V:1
 z4 z2[Q:1/4=100] E2 | A2 GF E2 [EA]2 | C2 D-[A,D] [B,E]2 [CE]2 | FG [EA]2 [FB]2 [EB]2 | %4
w: 1.~Hail~|to~ the~ * Lord's~ A|noin * * ted,~ great~|Da * vid's~ grea ter~|
[M:3/4] [Ec]6 |[M:1/4] E2 |[M:4/4] A2 GF E2 [EA]2 | z2 D2 z4 | FGA-[DA] [EA]2 [EG]2 | %9
w: Son!~|Hail~|in~ the~ * time~ ap||reign~ * on~ * earth~ be|
[M:3/4] [EA]6 |[M:1/4] [CA][DB] |[M:4/4] [Ec]2 [EB]2 [Ec]2 [Fd]2 | B2 GA [EB]2 A[EB] | %13
w: gun!~|He~ *|comes~ to~ break~ op|pres * * sion,~ to~ *|
 [Ec]2 [EB]2 [Ec]2 [Fd]2 |[M:3/4] [EB]6 |[M:1/4] E2 |[M:4/4] A2 GF E2 [EA]2 | z2 D2 z4 | %18
w: set~ the~ cap tive~|free;~|to~|take~ a * way~ trans||
 FGA-[DA] [EA]2 [EG]2 |[M:3/4] [EA]6 |] %20
w: rule~ * in~ * e qui|ty.~|
V:2
 x8 | x8 | z2 .B,2 z4 | D2 z2 z4 |[M:3/4] x6 |[M:1/4] x2 |[M:4/4] x8 | C2 B,A, [B,E]2 [CE]2 | %8
w: |||||||* * * * his~|
 D2 .C2 z4 |[M:3/4] x6 |[M:1/4] x2 |[M:4/4] x8 | E4 z4 | x8 |[M:3/4] x6 |[M:1/4] x2 |[M:4/4] x8 | %17
w: |||||||||
 C2 B,A, [B,E]2 [CE]2 | D2 .C2 z4 |[M:3/4] x6 |] %20
w: * * * * and~|||
V:3
 z4 z2 E,2 | A,2 G,F, E,2 A,2 | A,4 G,2 A,2 | A,2 A,2 A,2 G,2 |[M:3/4] A,6 |[M:1/4] E,2 | %6
[M:4/4] A,2 G,F, E,2 A,2 | A,4 G,2 A,2 | A,2 A,2 B,2 B,2 |[M:3/4] C6 |[M:1/4] A,2 | %11
[M:4/4] A,2 B,2 A,2 A,2 | G,2 z2 G,2 CB, | A,2 B,2 A,2 A,2 |[M:3/4] G,6 |[M:1/4] E,2 | %16
[M:4/4] A,2 G,F, E,2 A,2 | A,4 G,2 A,2 | A,2 A,2 B,2 B,2 |[M:3/4] C6 |] %20
V:4
 z8 | z4 z2 C,2 | F,4 E,2 A,,2 | D,2 C,2 D,2 E,2 |[M:3/4] A,,6 |[M:1/4] z2 |[M:4/4] z4 z2 C,2 | %7
 F,4 E,2 A,,2 | D,2 F,2 E,2 E,2 |[M:3/4] A,,6 |[M:1/4] A,,2 |[M:4/4] z2 G,2 z2 D,2 | %12
 E,2 z F, E,2 F,G, | z2 G,2 z2 D,2 |[M:3/4] E,6 |[M:1/4] z2 |[M:4/4] z4 z2 C,2 | F,4 E,2 A,,2 | %18
 D,2 F,2 E,2 E,2 |[M:3/4] A,,6 |] %20
V:5
 x8 | x8 | x8 | x8 |[M:3/4] x6 |[M:1/4] x2 |[M:4/4] x8 | x8 | x8 |[M:3/4] x6 |[M:1/4] x2 | %11
[M:4/4] x8 | z2 E,2 z4 | x8 |[M:3/4] x6 |[M:1/4] x2 |[M:4/4] x8 | x8 | x8 |[M:3/4] x6 |] %20

